X: 193
T: MISS CAMPBELL OF MONZIE
C: Anon, GOW'S 3rd Coll.
R: Reel
B: Glen Collection p.19 #3
Z: 2011 John Chambers <jc:trillian.mit.edu>
M: C|
L: 1/8
V: 1 middle=B clef=treble
V: 2 middle=d clef=bass
%%score {1 | 2}
K: C
%
V: 1
e |\
Tc2Gc ecGE | FdEc dDDB | c2Gc EcGE | FADF ECC :|
f |\
ecgc acgc | ec a/g/f/e/ fddf | gcac gcec | Bcdf eccf |
ecgc acgc | egce fddf | gecf afdc | Bcdf ecc |]
%
V: 2
z |\
c2[c'2g2] [c'2g2][c'2g2] | [b2g2][c'2g2] [b2g2][b2g2] |\
c2[c'2g2] [c'2g2][c'2g2] | [c'2f2][b2g2] c'2c :|
z |\
c2[c'2e2] [c'2f2][c'2e2] | c2[c'2g2] [b2g2][b2g2] |\
[c'2e2][c'2f2] [c'2e2][c'2g2] | g2G2 c2[g2e2] |
c2[c'2e2] [c'2f2][c'2e2] | c2[c'2g2] [b2g2][b2g2] |\
[c'2e2][c'2e2] [c'2f2][d'2^f2] | g2G2 c2[c'gec] |]
